!!!OTL: IK UND MYN LYSBET
!!!ARE: Europa, Mitteleuropa, Deutschland, Ditmarsch
!!!SCT: E0577
!!!YEM: Copyright 1995, estate of Helmut Schaffrath.
**kern
*ICvox
*Ivox
*M3/8
*k[f#c#]
*D:
=1
{8d
8f#
8a
=2
8d
8f#
8a
=3
8b
8b
8b
=4
4a
8r}
=5
{8b
8b
8b
=6
4a
8a
=7
8g
8g
8g
=8
8f#
8f#}
{8f#
=9
8e
8e
8e
=10
4d
8r}
==
!!!AGN: Liebes - Lied
!!!ONB: ESAC (Essen Associative Code) Database: ERK1
!!!AMT: simple triple
!!!AIN: vox
!!!EED: Helmut Schaffrath
!!!EEV: 1.0
*-
